web/ui/src/components/theme/button/svgs/visible.svg

<svg height="16" viewBox="0 0 16 16" width="16" xmlns="http://www.w3.org/2000/svg"><path d="m14.9375 9.76175c-1.69325 2.289-4.171 3.73625-6.9375 3.73625-2.76625 0-5.244-1.44725-6.9375-3.73625-.74775-1.0105-.74775-2.5125 0-3.52325 1.6935-2.289 4.17125-3.73625 6.9375-3.73625 2.7665 0 5.24425 1.44725 6.9375 3.73625.74775 1.01075.74775 2.51275 0 3.52325zm-.752-2.69325c-1.57075-2.2665-3.8315-3.56625-6.2025-3.56625s-4.63175 1.29975-6.2025 3.56625c-.37425.54-.37425 1.32375 0 1.86375 1.57075 2.2665 3.8315 3.5665 6.2025 3.5665s4.63175-1.3 6.2025-3.56675c.37425-.53975.37425-1.3235 0-1.8635zm-6.1805 4.42875c-1.933 0-3.5-1.567-3.5-3.5s1.567-3.5 3.5-3.5 3.5 1.567 3.5 3.5-1.567 3.5-3.5 3.5zm0-6c-1.38075 0-2.5 1.11925-2.5 2.5s1.11925 2.5 2.5 2.5 2.5-1.11925 2.5-2.5-1.11925-2.5-2.5-2.5z" fill="#595959"/></svg>

<?xml version="1.0" encoding="UTF-8"?>
<svg width="16px" height="16px" viewBox="0 0 16 16" version="1.1" xmlns="http://www.w3.org/2000/svg" xmlns:xlink="http://www.w3.org/1999/xlink">
    <title>查看</title>
    <g id="页面-1" stroke="none" stroke-width="1" fill="none" fill-rule="evenodd">
        <g id="建木自动化-首页" transform="translate(-646.000000, -163.000000)" fill="#FFFFFF" fill-rule="nonzero">
            <g id="编组-12" transform="translate(326.000000, 50.000000)">
                <g id="查看" transform="translate(320.000000, 113.000000)">
                    <path d="M14.9375,9.76175 C13.24425,12.05075 10.7665,13.498 8,13.498 C5.23375,13.498 2.756,12.05075 1.0625,9.76175 C0.31475,8.75125 0.31475,7.24925 1.0625,6.2385 C2.756,3.9495 5.23375,2.50225 8,2.50225 C10.7665,2.50225 13.24425,3.9495 14.9375,6.2385 C15.68525,7.24925 15.68525,8.75125 14.9375,9.76175 Z M14.1855,7.0685 C12.61475,4.802 10.354,3.50225 7.983,3.50225 C5.612,3.50225 3.35125,4.802 1.7805,7.0685 C1.40625,7.6085 1.40625,8.39225 1.7805,8.93225 C3.35125,11.19875 5.612,12.49875 7.983,12.49875 C10.354,12.49875 12.61475,11.19875 14.1855,8.932 C14.55975,8.39225 14.55975,7.6085 14.1855,7.0685 Z M8.005,11.49725 C6.072,11.49725 4.505,9.93025 4.505,7.99725 C4.505,6.06425 6.072,4.49725 8.005,4.49725 C9.938,4.49725 11.505,6.06425 11.505,7.99725 C11.505,9.93025 9.938,11.49725 8.005,11.49725 Z M8.005,5.49725 C6.62425,5.49725 5.505,6.6165 5.505,7.99725 C5.505,9.378 6.62425,10.49725 8.005,10.49725 C9.38575,10.49725 10.505,9.378 10.505,7.99725 C10.505,6.6165 9.38575,5.49725 8.005,5.49725 Z" id="形状" fill="#595959"></path>
                </g>
            </g>
        </g>
    </g>
</svg>
